X:170
M:C|
L:1/8
K:G
f|gfed e/e/e g2|gfed eBBf|gfed e/e/e g2|dBAB G2Gf|
gfed e/e/e g2|gfed eBBf|gfed efga|bagf g2gb||

